contributed-vectors/orgzly_alt.svg

<?xml version="1.0" encoding="utf-8"?>
<!-- Generator: Adobe Illustrator 17.1.0, SVG Export Plug-In . SVG Version: 6.00 Build 0)  -->
<!DOCTYPE svg PUBLIC "-//W3C//DTD SVG 1.1//EN" "http://www.w3.org/Graphics/SVG/1.1/DTD/svg11.dtd">
<svg version="1.1" id="Слой_1" xmlns="http://www.w3.org/2000/svg" xmlns:xlink="http://www.w3.org/1999/xlink" x="0px" y="0px"
	 viewBox="0 0 192 192" enable-background="new 0 0 192 192" xml:space="preserve">
<path fill="#B1B5BD" d="M192,96.4c0,26.5,0,53,0,79.5c0,10.5-5.6,16.1-16.2,16.1c-53.3,0-106.6,0-159.9,0c-10.3,0-16-5.7-16-15.9
	C0,122.7,0,69.3,0,15.9C0,5.7,5.7,0,16,0c53.4,0,106.8,0,160.2,0c10,0,15.8,5.7,15.8,15.7C192,42.6,192,69.5,192,96.4z M187.4,96.3
	c0-26.5,0-53,0-79.5c0-8.7-3.4-12.2-12-12.2c-52.9,0-105.8,0-158.7,0C8.1,4.6,4.6,8.1,4.6,16.7c0,52.9,0,105.8,0,158.7
	c0,8.4,3.5,12,11.8,12c53,0,106,0,159.1,0c8.4,0,11.9-3.5,11.9-11.9C187.4,149.1,187.4,122.7,187.4,96.3z"/>
<path fill="#FFFFFF" d="M187.4,96.3c0,26.4,0,52.8,0,79.2c0,8.4-3.5,11.9-11.9,11.9c-53,0-106,0-159.1,0c-8.3,0-11.8-3.5-11.8-12
	c0-52.9,0-105.8,0-158.7c0-8.7,3.4-12.1,12.1-12.1c52.9,0,105.8,0,158.7,0c8.6,0,12,3.5,12,12.2C187.4,43.3,187.4,69.8,187.4,96.3z
	 M96,47.8c5.8,0,11.5,0,17.3,0c13.2,0,26.4,0.1,39.6,0c6.9,0,11-4.8,10-11.1c-0.8-5-4.5-7.8-10.7-7.8c-37.5,0-75.1,0-112.6,0
	c-0.9,0-1.8,0-2.7,0.1c-4.5,0.6-7.7,4-8,8.5c-0.5,6.2,3.6,10.2,10.6,10.3C58.4,47.8,77.2,47.8,96,47.8z M95.9,163.1
	c11.1,0,22.3,0,33.4,0c8.1,0,16.1,0.1,24.2-0.1c6.3-0.1,10.3-4.9,9.4-10.9c-0.7-4.8-4.3-7.9-9.8-7.9c-38,0-76.1,0-114.1,0
	c-0.6,0-1.3,0-1.9,0.1c-4.6,0.6-7.9,4.1-8.1,8.7c-0.3,6,3.7,10,10.5,10C58.2,163.1,77.1,163.1,95.9,163.1z M117.5,86.2
	C117.5,86.2,117.5,86.2,117.5,86.2c11.8,0,23.5,0.1,35.3,0c6.3,0,10.3-3.7,10.3-9.4c0-5.7-3.9-9.4-10.2-9.4c-23.5,0-47.1,0-70.6,0
	c-1.6,0-3.4,0.3-4.8,0.9c-4,1.8-6.1,6.3-5.2,10.5c1,4.2,4.5,7.3,9.1,7.3C93.4,86.3,105.5,86.2,117.5,86.2z M117.5,124.6
	c11.6,0,23.3,0,34.9,0c1.7,0,3.6-0.2,5.2-0.8c4.2-1.7,6.2-6.2,5.2-10.8c-1-4.3-4.6-7.1-9.6-7.2c-23.7-0.1-47.3-0.1-71,0
	c-6.1,0-10.2,4-10.1,9.6c0.1,5.4,4.1,9.2,10.1,9.2C93.9,124.6,105.7,124.6,117.5,124.6z"/>
<path fill="#B1B5BD" d="M96,47.8c-18.8,0-37.7,0-56.5,0c-6.9,0-11-4.1-10.6-10.3c0.3-4.5,3.5-7.9,8-8.5c0.9-0.1,1.8-0.1,2.7-0.1
	c37.5,0,75.1,0,112.6,0c6.1,0,9.9,2.8,10.7,7.8c1,6.3-3.2,11-10,11.1c-13.2,0.1-26.4,0-39.6,0C107.6,47.8,101.8,47.8,96,47.8z"/>
<path fill="#B1B5BD" d="M95.9,163.1c-18.8,0-37.7,0-56.5,0c-6.7,0-10.8-4-10.5-10c0.2-4.7,3.5-8.2,8.1-8.7c0.6-0.1,1.3-0.1,1.9-0.1
	c38,0,76.1,0,114.1,0c5.5,0,9.1,3.1,9.8,7.9c0.9,6.1-3.1,10.8-9.4,10.9c-8.1,0.2-16.1,0.1-24.2,0.1
	C118.2,163.1,107,163.1,95.9,163.1z"/>
<path fill="#B1B5BD" d="M117.5,86.2c-12,0-24,0.1-36.1,0c-4.6,0-8.2-3.1-9.1-7.3c-0.9-4.2,1.1-8.7,5.2-10.5c1.5-0.7,3.2-0.9,4.8-0.9
	c23.5-0.1,47.1-0.1,70.6,0c6.3,0,10.2,3.7,10.2,9.4c0,5.7-4,9.4-10.3,9.4C141,86.3,129.2,86.2,117.5,86.2
	C117.5,86.2,117.5,86.2,117.5,86.2z"/>
<path fill="#B1B5BD" d="M117.5,124.6c-11.8,0-23.5,0-35.3,0c-6,0-10-3.8-10.1-9.2c-0.1-5.6,4-9.6,10.1-9.6c23.7-0.1,47.3,0,71,0
	c5.1,0,8.7,2.8,9.6,7.2c1,4.6-1,9-5.2,10.8c-1.6,0.7-3.5,0.8-5.2,0.8C140.8,124.6,129.1,124.6,117.5,124.6z"/>
</svg>

<svg xmlns="http://www.w3.org/2000/svg" xml:space="preserve" viewBox="0 0 192 192"><path fill="#B1B5BD" d="M192 96.4v79.5c0 10.5-5.6 16.1-16.2 16.1H15.9c-10.3 0-16-5.7-16-15.9C0 122.7 0 69.3 0 15.9 0 5.7 5.7 0 16 0h160.2c10 0 15.8 5.7 15.8 15.7v80.7zm-4.6-.1V16.8c0-8.7-3.4-12.2-12-12.2H16.7C8.1 4.6 4.6 8.1 4.6 16.7v158.7c0 8.4 3.5 12 11.8 12h159.1c8.4 0 11.9-3.5 11.9-11.9V96.3z"/><path fill="#FFF" d="M187.4 96.3v79.2c0 8.4-3.5 11.9-11.9 11.9H16.4c-8.3 0-11.8-3.5-11.8-12V16.7C4.6 8 8 4.6 16.7 4.6h158.7c8.6 0 12 3.5 12 12.2v79.5zM96 47.8h17.3c13.2 0 26.4.1 39.6 0 6.9 0 11-4.8 10-11.1-.8-5-4.5-7.8-10.7-7.8H39.6c-.9 0-1.8 0-2.7.1-4.5.6-7.7 4-8 8.5-.5 6.2 3.6 10.2 10.6 10.3H96zm-.1 115.3h33.4c8.1 0 16.1.1 24.2-.1 6.3-.1 10.3-4.9 9.4-10.9-.7-4.8-4.3-7.9-9.8-7.9H39c-.6 0-1.3 0-1.9.1-4.6.6-7.9 4.1-8.1 8.7-.3 6 3.7 10 10.5 10 18.7.1 37.6.1 56.4.1zm21.6-76.9c11.8 0 23.5.1 35.3 0 6.3 0 10.3-3.7 10.3-9.4s-3.9-9.4-10.2-9.4H82.3c-1.6 0-3.4.3-4.8.9-4 1.8-6.1 6.3-5.2 10.5 1 4.2 4.5 7.3 9.1 7.3 12 .2 24.1.1 36.1.1zm0 38.4h34.9c1.7 0 3.6-.2 5.2-.8 4.2-1.7 6.2-6.2 5.2-10.8-1-4.3-4.6-7.1-9.6-7.2-23.7-.1-47.3-.1-71 0-6.1 0-10.2 4-10.1 9.6.1 5.4 4.1 9.2 10.1 9.2h35.3z"/><path fill="#B1B5BD" d="M96 47.8H39.5c-6.9 0-11-4.1-10.6-10.3.3-4.5 3.5-7.9 8-8.5.9-.1 1.8-.1 2.7-.1h112.6c6.1 0 9.9 2.8 10.7 7.8 1 6.3-3.2 11-10 11.1-13.2.1-26.4 0-39.6 0H96zM95.9 163.1H39.4c-6.7 0-10.8-4-10.5-10 .2-4.7 3.5-8.2 8.1-8.7.6-.1 1.3-.1 1.9-.1H153c5.5 0 9.1 3.1 9.8 7.9.9 6.1-3.1 10.8-9.4 10.9-8.1.2-16.1.1-24.2.1-11-.1-22.2-.1-33.3-.1zM117.5 86.2c-12 0-24 .1-36.1 0-4.6 0-8.2-3.1-9.1-7.3-.9-4.2 1.1-8.7 5.2-10.5 1.5-.7 3.2-.9 4.8-.9 23.5-.1 47.1-.1 70.6 0 6.3 0 10.2 3.7 10.2 9.4s-4 9.4-10.3 9.4c-11.8 0-23.6-.1-35.3-.1zM117.5 124.6H82.2c-6 0-10-3.8-10.1-9.2-.1-5.6 4-9.6 10.1-9.6 23.7-.1 47.3 0 71 0 5.1 0 8.7 2.8 9.6 7.2 1 4.6-1 9-5.2 10.8-1.6.7-3.5.8-5.2.8h-34.9z"/></svg>
